components/Common/Svg/svgs/logistics.svg

<svg width="90" height="90" viewBox="0 0 90 90" fill="none" xmlns="http://www.w3.org/2000/svg">
<circle opacity="0.7" cx="45" cy="45" r="45" fill="#FFE603"/>
<path fill-rule="evenodd" clip-rule="evenodd" d="M36.1106 27.7352C35.9048 27.7417 35.7095 27.8282 35.5664 27.9763L29.2834 34.2624L29.2339 34.3088C29.197 34.3456 29.1639 34.386 29.1349 34.4294C29.1329 34.4325 29.1308 34.4355 29.1288 34.4387C29.1166 34.4577 29.1052 34.4773 29.0947 34.4974C29.0927 34.5005 29.0906 34.5036 29.0886 34.5067C29.0784 34.5269 29.0691 34.5475 29.0607 34.5685C29.0586 34.5726 29.0566 34.5767 29.0545 34.5809C29.0464 34.6022 29.0392 34.6239 29.0329 34.6458C29.0307 34.654 29.0286 34.6623 29.0267 34.6706C29.0218 34.691 29.0177 34.7116 29.0144 34.7324C29.0103 34.7549 29.0072 34.7776 29.0051 34.8004C29.005 34.8045 29.005 34.8087 29.0051 34.8128C29.0034 34.8313 29.0024 34.8499 29.002 34.8684V60.1983C29.0018 60.2241 29.0028 60.2499 29.0051 60.2756C29.0144 60.3836 29.0458 60.4885 29.0974 60.5838C29.1489 60.6792 29.2195 60.7629 29.3047 60.8299C29.3899 60.8968 29.488 60.9456 29.5928 60.9731C29.6729 60.9941 29.7557 61.0024 29.8381 60.9978C29.8889 60.9949 29.9397 60.9898 29.9906 60.9898H55.1237C55.132 60.9889 55.1402 60.9879 55.1484 60.9867C55.167 60.9864 55.1856 60.9853 55.2041 60.9836C55.2113 60.9827 55.2185 60.9817 55.2257 60.9806C55.2444 60.9781 55.263 60.975 55.2814 60.9713C55.3059 60.9664 55.3301 60.9604 55.354 60.9532C55.3551 60.9529 55.3561 60.9527 55.3572 60.9527C55.3582 60.9527 55.3592 60.9526 55.3601 60.9523C55.3669 60.9505 55.3736 60.9486 55.3803 60.9465C55.3981 60.94 55.4156 60.9327 55.4329 60.9249C55.4402 60.9219 55.4474 60.9188 55.4545 60.9156C55.4713 60.908 55.4878 60.8997 55.504 60.8909C55.5103 60.8868 55.5164 60.8827 55.5226 60.8785C55.546 60.8653 55.5687 60.8508 55.5906 60.8352C55.6054 60.8244 55.6199 60.8131 55.6339 60.8012C55.6401 60.7962 55.6463 60.791 55.6524 60.7858C55.663 60.7768 55.6733 60.7675 55.6834 60.7579L55.6926 60.7487L62.0159 54.4255C62.1643 54.277 62.2478 54.0757 62.2478 53.8658V28.536C62.2479 28.3626 62.1911 28.194 62.0861 28.056C61.9811 27.918 61.8337 27.8183 61.6665 27.7723C61.6426 27.765 61.6184 27.759 61.5939 27.754C61.5928 27.7538 61.5917 27.7537 61.5906 27.7537C61.5897 27.7537 61.5887 27.7536 61.5878 27.7535C61.5626 27.7492 61.5373 27.7462 61.5119 27.7444C61.4933 27.7438 61.4748 27.7438 61.4562 27.7444H61.4315H36.3513C36.2981 27.7444 36.2451 27.7388 36.192 27.7357C36.1649 27.7341 36.1378 27.7339 36.1106 27.7352ZM36.4538 29.3275H59.5453L55.0888 33.784C54.9013 33.9715 54.6469 34.0769 54.3817 34.0769H31.7044L36.4538 29.3275ZM60.6647 30.4469V53.5381L55.9153 58.2874V35.1962L60.6647 30.4469ZM30.5851 35.66H54.3321V59.4067H31.5851C31.0328 59.4067 30.5851 58.959 30.5851 58.4067V35.66ZM32.9598 49.908C32.5226 49.908 32.1683 50.2624 32.1683 50.6996C32.1683 51.1368 32.5226 51.4911 32.9598 51.4911H40.8755C41.3127 51.4911 41.6671 51.1368 41.6671 50.6996C41.6671 50.2624 41.3127 49.908 40.8755 49.908H32.9598ZM32.9598 53.0743C32.5226 53.0743 32.1683 53.4286 32.1683 53.8658C32.1683 54.303 32.5226 54.6574 32.9598 54.6574H37.7092C38.1464 54.6574 38.5008 54.303 38.5008 53.8658C38.5008 53.4286 38.1464 53.0743 37.7092 53.0743H32.9598Z" fill="black"/>
</svg>

<svg width="90" height="90" viewBox="0 0 90 90" fill="none" xmlns="http://www.w3.org/2000/svg"><circle opacity=".7" cx="45" cy="45" r="45" fill="#FFE603"/><path fill-rule="evenodd" clip-rule="evenodd" d="M36.11 27.735a.792.792 0 0 0-.544.241l-6.283 6.286-.05.047a.79.79 0 0 0-.098.12l-.006.01a.76.76 0 0 0-.034.058l-.006.01c-.01.02-.02.04-.028.062l-.006.012a.822.822 0 0 0-.053.287v25.33a.798.798 0 0 0 .59.775c.08.021.164.03.246.025.05-.003.102-.008.153-.008h25.133a.666.666 0 0 0 .024-.003.74.74 0 0 0 .375-.108.766.766 0 0 0 .16-.121l.01-.01 6.323-6.322a.792.792 0 0 0 .232-.56v-25.33a.792.792 0 0 0-.792-.792H36.351c-.053 0-.106-.005-.159-.008a.762.762 0 0 0-.081 0Zm.344 1.593h23.091l-4.456 4.456a1 1 0 0 1-.707.293H31.704l4.75-4.75Zm24.21 1.119v23.091l-4.749 4.75V35.195l4.75-4.75ZM30.586 35.66h23.747v23.747H31.585a1 1 0 0 1-1-1V35.66Zm2.375 14.248a.792.792 0 0 0 0 1.583h7.916a.792.792 0 1 0 0-1.583H32.96Zm0 3.166a.791.791 0 1 0 0 1.583h4.75a.792.792 0 1 0 0-1.583h-4.75Z" fill="#000"/></svg>
